!!!!SEGMENT: pl-wn--sd-xvi-qu-273--124_gomolka-mikolaj--by-byl-pan-nie-tak-laskaw-na-nasze-zdrowie.krn
!!!cenid: 15xx:329
!!!COM: Gomółka, Mikołaj
!!!COM-rismid: pe30013343
!!!CDT: ~1535->1591/04/30
!!!CNT: Polish
!!!GTL: Melodiae na psalterz polski
!!!OTL: CXXIV. By był Pan nie tak łaskaw na nasze zdrowie,
!!!ONB: PSALM CXXIIII. Nisi quia dominus erat in nobis: dicat nunc Jſrael: quia dominus erat in nobis. Cum exurgerent homines in nos:
!!!PDT: 1580
!!!AGN: Sacred
!!!SMS-siglum: PL-Wn
!!!SMS-shelfmark: SD XVI.Qu.273
!!!SMS-shelfwork: 124 G
!!!NIFC-rismid:
!!!ONB-nifc: Melodiae na psalterz polski
**kern	**text	**kern	**text	**kern	**text	**kern	**text
*part4	*part4	*part3	*part3	*part2	*part2	*part1	*part1
*staff4	*staff4	*staff3	*staff3	*staff2	*staff2	*staff1	*staff1
*clefF4	*	*clefC3	*	*clefC2	*	*clefC1	*
*k[b-]	*	*k[b-]	*	*k[b-]	*	*k[b-]	*
*g:	*	*g:	*	*g:	*	*g:	*
*M2/1	*	*M2/1	*	*M2/1	*	*M2/1	*
*met(C|)	*	*met(C|)	*	*met(C|)	*	*met(C|)	*
*I"BASSUS.	*	*I"TENOR.	*	*I"ALTUS.	*	*I"CANTUS.	*
=1-	=1	=1-	=1	=1-	=1	=1-	=1
1GG/	BY	1d\	BY	1g\	BY	1b-\	BY
2.D/	był	2d\	był	2.f\	był	2.a\	był
.	.	4.d\	pan	.	.	.	.
4G\	pan	.	.	4g\	pan	4b-\	pan
.	.	8e\	.	.	.	.	.
=2-	=2	=2-	=2	=2-	=2	=2-	=2
4F\	nie	4f\	nie	4a\	nie	4cc\	nie
4D\	ták	4f\	ták	4a\	ták	2dd\	ták
2A\	łá-	2e\	łá-	4.a\	łá-	.	.
.	.	.	.	.	.	4cc\	łá-
.	.	.	.	8g\	.	.	.
2D/	-ſkaw	2d\	-ſkaw	2f#\	-ſkaw	2dd\	-ſkaw
2G\	ná	2d\	ná	2g\	ná	2dd\	ná
=3-	=3	=3-	=3	=3-	=3	=3-	=3
!LO:SIC:s=4E-:v	!	!	!	!	!	!	!
4E\	na-	4.e-X\	na-	4g\	ná-	4cc\	ná-
!LO:SIC:s=4E-:v	!	!	!	!	!	!	!
4E\	-ſʒé	.	.	4g\	-ſʒé	2b-\	-ſʒé
.	.	8d\	-ſʒé	.	.	.	.
2F\	ʒdro-	2c/	ʒdro-	4.fny\	ʒdro-	.	.
.	.	.	.	.	.	4a\	ʒd(ro-
!	!	!	!	!LO:SIC:s=8e-:v	!	!	!
.	.	.	.	8e/	.	.	.
2BB-/	-(wie)	2B-/	-(wie)	2d/	-(wie)	2b-\	-wie)
2D/	Nie-	2f\	Nie-	2d/	Nie-	2a\	Nie-
=4-	=4	=4-	=4	=4-	=4	=4-	=4
2F\	-ch(aj)	2f\	-ch(aj)	2c/	-ch(aj)	2a\	-ch(aj)
2C/	cné	2e-X\	cné	2g\	cné	2cc\	cné
2G\	I-	2d\	I-	2g\	I-	4g\	I-
.	.	.	.	.	.	4a\	-ʒrá-
2G\	-ʒrá-	4c/	-ʒrá-	2g\	-ʒrá-	1b-\	-hel-
.	.	4B-/	-hel-	.	.	.	.
=5-	=5	=5-	=5	=5-	=5	=5-	=5
2E-X\	-hel-	1c\	-ſkié	2g\	-hel-	.	.
2F\	-ſkié	.	.	4f\	-ſkié	2a\	-ſkié
!	!	!	!	!LO:SIC:s=8e-:v	!	!	!
.	.	.	.	4e\	.	.	.
!!LO:PB:g=original
2.BB-/	po-	2.B-/	po-	2.d/	po-	2.b-\	po-
4BB-/	-tom-	4d\	-tom-	4f\	-tom-	4b-\	-tom-
=6-	=6	=6-	=6	=6-	=6	=6-	=6
!LO:SIC:s=4E-:v	!	!	!	!	!	!	!
4Eny\	-ſtwo	4B-/	-ſtwo	4g\	-ſtwo	4g/	-ſtwo
4C/	po-	4c/	po-	4g\	po-	2g/	po-
2D/	.	2A/	.	4.f\	.	.	.
.	.	.	.	.	.	4f/	.
!	!	!	!	!LO:SIC:s=8e-:v	!	!	!
.	.	.	.	8e/	.	.	.
2GG/	-wié:	2G/	-wié:	2d/	-wié:	2g/	-wié:
2G\	By	2B-/	.	2d/	By	2g/	By
=7-	=7	=7-	=7	=7-	=7	=7-	=7
2B-\	by-	2B-/	By	2d/	by-	2.f/	by-
4A\	-łá	4c/	by-	2.f\	-łá	.	.
4G\	nie	4d\	-łá	.	.	4g/	-łá
4F\	tá	4d\	nie	.	.	4a\	nie
!	!	!	!	!LO:SIC:s=4e-:v	!	!	!
4G\	ku	8c/L	tá	4e/	nie	2b-\	tá
.	.	8B-/J	.	.	.	.	.
2F\	nam	2c/	ku	4.f\	tá	.	.
.	.	.	.	.	.	4a\	ku
!	!	!	!	!LO:SIC:s=8e-:v	!	!	!
.	.	.	.	8e/	ku	.	.
=8-	=8	=8-	=8	=8-	=8	=8-	=8
2BB-/	.	2B-/	nam	2d/	nam	2b-\	nam
2B-\	ʒ̇y-	2f\	ʒ̇y-	2d/	ʒ̇y-	2b-\	ʒ̇y-
!LO:SIC:s=2E-:v	!	!LO:SIC:s=4e-:v	!	!	!	!	!
2E\	-cʒli-	4eny\	-cʒli-	2g\	cʒli-	2cc\	-cʒli-
.	.	4d\	.	.	.	.	.
2G\	.	4c/	.	2e-X/	.	1b-\	-wość
.	.	4B-/	.	.	.	.	.
=9-	=9	=9-	=9	=9-	=9	=9-	=9
1F\	-wość	1c\	-wość	2.f\	-wość	.	.
.	.	.	.	.	.	2a\	.
!	!	!	!	!LO:SIC:s=4e-:v	!	!	!
.	.	.	.	4eny/	.	.	.
2BB-/	páń-	2B-/	páń-	2d/	páń-	2b-\	pań-
2BB-/	-ſka,	2B-/	-ſka,	2f\	-ſka,	2b-\	-ſka,
=10-	=10	=10-	=10	=10-	=10	=10-	=10
!!LO:PB:g=original
2F\	Gdy	2c/	Gdy	2f\	Gdy	2a\	Gdy
2D/	ná	1d\	ná	2f\	ná	4g/	ná
.	.	.	.	.	.	4f/	nas
!LO:SIC:s=1E-:v	!	!	!	!	!	!	!
1E\	nas	.	.	2f\	nas	1g\	wſʒyt-
!	!	!	!	!LO:N:vis=1	!	!	!
.	.	2c/	nas	2e-X\	wſʒyt-	.	.
=11-	=11	=11-	=11	=11-	=11	=11-	=11
2D/	wſʒyt-	2d\	wſʒyt-	2f\	-ká	2f/	-ká
2GG/	-ká	2B-/	-ká	2.d/	śi-	2g/	śi-
2D/	śi-	2A/	śi-	.	.	2a\	-łá
.	.	.	.	4d/	-łá	.	.
2BB-/	-łá	2d\	-łá	2f\	prʒy-	2b-\	prʒy-
=12-	=12	=12-	=12	=12-	=12	=12-	=12
2C/	prʒy-	2.c/	prʒy-	2e-X/	-ſʒłá	2g/	-ſʒłá
2C/	-ſʒłá	.	.	2e-/	po-	1g\	po-
.	.	4B-/	-ſʒłá	.	.	.	.
1D\	po_gáń-	4A/	po-	2.d/	-gáń-	.	.
.	.	4G/	.	.	.	.	.
.	.	2A/	-gáń-	.	.	2f/	-gáń-
.	.	.	.	4c/	-ſka.	.	.
=13-	=13	=13-	=13	=13-	=13	=13-	=13
*000/left	*	*	*	*	*	*	*
000GG/	-ſka.	000G/	-ſka.	000B-/	.	000g\	-ſka.
==	==	==	==	==	==	==	==
*-	*-	*-	*-	*-	*-	*-	*-
!!!RDF**kern: l = terminal long
!!!system-decoration: s1,s2,s3,s4
!!!ENC: Marta Lawrence
!!!END: 2020-02-20
!!!URL-scan: https://polona.pl/item/melodiae-na-psalterz-polski,Nzk3MTM4ODQ/290 Scan on Polona
!!!IIIF: https://polona.pl/iiif/item/Nzk3MTM4ODQ/manifest.json
